X:1
T:Come In and Abide
T:Come In and Abide
T:Arranged by I. S. Field
T:R. H. Pitt, 1898
T:Public Domain Courtesy of the Cyber Hymnal™
T:Public Domain Courtesy of the Cyber Hymnal™
C:Arranged by I. S. Field
Z:Public Domain
Z:Courtesy of the Cyber Hymnal™
%%score ( 1 2 ) ( 3 4 )
L:1/8
Q:1/4=95
M:3/4
K:D
V:1 treble 
V:2 treble 
V:3 bass 
V:4 bass 
V:1
 [FA]4 [EG]>[DF] | [DF] [CE]3 z2 | [CE]>[DF] [EG]3 [EG] | [DF][GB] [FA]3 z | [FA]4 [EG]>[DF] | %5
w: 1.~Come, blest Re-|deem- er!|Be Thy ser- vants’|hon- ored guest—|Come in com-|
w: 2.~Come, dear Re-|deem- er!|We are faint and|sore dis- tressed:|If Thou wilt|
w: 3.~Hail! bless- èd|Je- sus,|Thou hast heard Thy|ser- vants’ prayer,|And hearts are|
 [DF] [CE]3 z2 | [CE][DF] !fermata![EG]2 !fermata!A,2 | [A,D]4 z2 | [DF][FA] [Fd]3 [Ac] | %9
w: pas- sion,|Give the trou- bled|rest.|Lo, the day is|
w: en- ter|We are tru- ly|blest.|Thou dost soothe our|
w: glow- ing|In Thy pre- sence|fair.|Thou hast sown the|
 [Ac] [GB]3 z2 |!<(! [CE][CE]!<)! [CA]3 [EG] | [DF][GB] [FA]3 z | [DF][FA] [Fd]3 [Ac] | %13
w: dy- ing—|Lo, the night comes|on a- pace,|And our spir- its|
w: an- guish,|Thou for- giv’st Thy|peo- ple’s sin—|We are lost with-|
w: sun- beams|Where the sha- dows|used to dwell,|Thou hast whis- pered|
 [Ac] [GB]3 z2 | [FA][FA] [FA]2 [DF]2 | D4 z2 ||"^Refrain" [DF]2 [DF]2 (3(FEF) | [CG]2 [EG]2 z2 | %18
w: sigh- ing,|Long to see Thy|face.|||
w: out Thee,|Haste to en- ter|in.|Je- sus— dear * *|Mas- ter,|
w: soft- ly,|“Peace— all shall be|well.”|||
 [CE]>[CE] [FA]3 [EG] | [DF][GB] [FA]3 z | [DF]2 [DF]2 (3(FEF) | [CG]2 [EG]2 z2 | %22
w: ||||
w: Come and reign with-|in each heart,|Deign to be * *|near us;|
w: ||||
 A,A, [FA]2 [EG]2 | [DF]4 |] %24
w: ||
w: Ne- ver- more de-|part.|
w: ||
V:2
 x6 | x6 | x6 | x6 | x6 | x6 | x4 A,2 | x6 | x6 | x6 | x6 | x6 | x6 | x6 | x6 | D4 x2 || x6 | x6 | %18
 x6 | x6 | x6 | x6 | A,A, x4 | x4 |] %24
V:3
 [D,A,]4 [D,A,]>[D,A,] | [A,,A,] [A,,A,]3 z2 | [A,,A,]>[A,,A,] [A,,A,]3 [A,,A,] | %3
 [D,A,][D,D] [D,D]3 z | [D,A,]4 [D,A,]>[D,A,] | [A,,A,] [A,,A,]3 z2 | %6
 [A,,A,][A,,A,] !fermata![A,,A,]2 !fermata![A,,G,]2 | [D,,D,F,]4 z2 | [D,A,][D,D] [D,D]3 [F,D] | %9
 [G,D] [G,D]3 z2 | A,A, [A,,A,]3 [C,A,] | [D,A,][D,D] [D,D]3 z | [D,A,][D,D] [D,D]3 [F,D] | %13
 [G,D] [G,D]3 z2 | [A,D][F,D] [D,A,]2 [A,,A,]2 | [D,,D,F,]4 z2 || [D,A,]2 [D,A,]2 z2 | %17
 [A,,A,]2 [A,,A,]2 z2 | [A,,A,]>[A,,A,] [A,,A,]3 [A,,A,] | [D,A,][D,D] [D,D]3 z | %20
 [D,A,]2 [D,A,]2 z2 | [A,,A,]2 [A,,A,]2 z2 | [A,,A,][A,,A,] [A,,A,]2 [A,,A,]2 | [D,,D,A,]4 |] %24
V:4
 x6 | x6 | x6 | x6 | x6 | x6 | x6 | x6 | x6 | x6 | A,A, x4 | x6 | x6 | x6 | x6 | x6 || x6 | x6 | %18
 x6 | x6 | x6 | x6 | x6 | x4 |] %24

